Obsidian-SemiLight/actions/22s/view-certificate-sign.svg

<svg viewBox="0 0 22 22" xmlns="http://www.w3.org/2000/svg"><path d="m3 5v12h8v-1h-7v-10h14v4h1v-5zm4.5 2c-.831 0-1.5.669-1.5 1.5v1.5h-1v3h5v-3h-1v-1.5c0-.831-.669-1.5-1.5-1.5zm0 1c.277 0 .5.223.5.5v1.5h-1v-1.5c0-.277.223-.5.5-.5zm3.5 0v1h6v-1zm0 2v1h5v-1zm0 2v1h4v-1z" fill="#4d4d4d"/><path d="m18 11-.996094.994141-.003906-.003907-5 4.998047.005859.00586-.005859.005859.007812.007812-.003906.992188h-.003906v.990234.009766h2l.005859-.005859.003907-.003907c.004-.00002.005765.001954.009765.001954l-.005859-.00586.986328-.986328 4-3.996094c-.004.002-.004766.00286-.009766.00586l.009766-.011719.998047-.998047.001953-.001953z" fill="#2ecc71"/></svg>

<svg xmlns="http://www.w3.org/2000/svg" viewBox="0 0 22 22">
  <defs id="defs3051">
    <style type="text/css" id="current-color-scheme">
      .ColorScheme-Text {
        color:#4d4d4d;
      }
      </style>
  </defs>
 <path 
     style="fill:currentColor;fill-opacity:1;stroke:none" 
     d="M 3 5 L 3 17 L 11 17 L 11 16 L 4 16 L 4 6 L 18 6 L 18 10 L 19 10 L 19 5 L 3 5 z M 7.5 7 C 6.669 7 6 7.669 6 8.5 L 6 10 L 5 10 L 5 13 L 10 13 L 10 10 L 9 10 L 9 8.5 C 9 7.669 8.331 7 7.5 7 z M 7.5 8 C 7.777 8 8 8.223 8 8.5 L 8 10 L 7 10 L 7 8.5 C 7 8.223 7.223 8 7.5 8 z M 11 8 L 11 9 L 17 9 L 17 8 L 11 8 z M 11 10 L 11 11 L 16 11 L 16 10 L 11 10 z M 11 12 L 11 13 L 15 13 L 15 12 L 11 12 z "
     class="ColorScheme-Text"
     />
 <path 
     style="fill:#2ecc71;fill-opacity:1;stroke:none" 
     d="M 18 11 L 17.003906 11.994141 L 17 11.990234 L 12 16.988281 L 12.005859 16.994141 L 12 17 L 12.007812 17.007812 L 12.003906 18 L 12 18 L 12 18.990234 L 12 19 L 14 19 L 14.005859 18.994141 L 14.009766 18.990234 C 14.013766 18.990214 14.015531 18.992188 14.019531 18.992188 L 14.013672 18.986328 L 15 18 L 19 14.003906 C 18.996 14.005906 18.995234 14.006766 18.990234 14.009766 L 19 13.998047 L 19.998047 13 L 20 12.998047 L 18 11 z "
     />
</svg>
